static/logos/pinterest-glyph-color.svg

<svg width="50" height="50" viewBox="0 0 50 50" fill="none" xmlns="http://www.w3.org/2000/svg">
<g clip-path="url(#clip0_1_1686)">
<path d="M0 25.0004C0 35.2375 6.15586 44.032 14.9646 47.8986C14.8943 46.1529 14.9521 44.0572 15.3998 42.1578C15.8805 40.1283 18.6166 28.5352 18.6166 28.5352C18.6166 28.5352 17.818 26.9389 17.818 24.5797C17.818 20.8748 19.9652 18.1078 22.6395 18.1078C24.9135 18.1078 26.0121 19.8158 26.0121 21.8611C26.0121 24.1471 24.5541 27.5664 23.8043 30.7334C23.1779 33.3854 25.134 35.5484 27.7502 35.5484C32.4869 35.5484 35.6771 29.4646 35.6771 22.2564C35.6771 16.7771 31.9867 12.676 25.2744 12.676C17.6908 12.676 12.9664 18.3314 12.9664 24.6486C12.9664 26.8268 13.6086 28.3627 14.6145 29.5521C15.077 30.0984 15.1412 30.3182 14.9738 30.9455C14.8539 31.4055 14.5785 32.5129 14.4645 32.9518C14.298 33.585 13.785 33.8113 13.2127 33.5775C9.71973 32.1516 8.09297 28.3264 8.09297 24.0264C8.09297 16.9246 14.0824 8.40898 25.9605 8.40898C35.5055 8.40898 41.7877 15.316 41.7877 22.7303C41.7877 32.5375 36.3354 39.8643 28.2982 39.8643C25.5992 39.8643 23.0604 38.4053 22.1906 36.748C22.1906 36.748 20.7393 42.5082 20.4318 43.6205C19.9018 45.548 18.8643 47.4746 17.9156 48.9762C20.1641 49.6398 22.5393 50.0014 25.001 50.0014C38.8064 50.0014 50.0002 38.8082 50.0002 25.0004C50.0002 11.1932 38.8064 0 25.001 0C11.1941 0 0 11.1932 0 25.0004Z" fill="#CB1F27"/>
</g>
<defs>
<clipPath id="clip0_1_1686">
<rect width="50" height="50" fill="white"/>
</clipPath>
</defs>
</svg>

<svg xmlns="http://www.w3.org/2000/svg" width="64" height="64" fill="none" viewBox="0 0 50 50"><g clip-path="url(#a)"><path fill="#CB1F27" d="M0 25C0 35.237 6.156 44.032 14.965 47.9c-.07-1.746-.013-3.842.435-5.741l3.217-13.623s-.799-1.596-.799-3.955c0-3.705 2.147-6.472 4.822-6.472 2.273 0 3.372 1.708 3.372 3.753 0 2.286-1.458 5.705-2.208 8.872-.626 2.652 1.33 4.815 3.946 4.815 4.737 0 7.927-6.083 7.927-13.292 0-5.479-3.69-9.58-10.403-9.58-7.583 0-12.308 5.655-12.308 11.973 0 2.178.643 3.714 1.649 4.903.462.546.526.766.359 1.393-.12.46-.396 1.568-.51 2.007-.166.633-.679.86-1.251.626-3.493-1.426-5.12-5.252-5.12-9.552 0-7.101 5.99-15.617 17.867-15.617 9.545 0 15.828 6.907 15.828 14.321 0 9.808-5.453 17.134-13.49 17.134-2.699 0-5.238-1.459-6.107-3.116 0 0-1.452 5.76-1.76 6.873-.53 1.927-1.567 3.854-2.515 5.355A24.983 24.983 0 0 0 25 50.001c13.805 0 25-11.193 25-25C50 11.192 38.805 0 25 0 11.194 0 0 11.193 0 25Z"/></g><defs><clipPath id="a"><path fill="#fff" d="M0 0h50v50H0z"/></clipPath></defs></svg>
